icons/align-top.svg

<svg xmlns="http://www.w3.org/2000/svg" viewBox="0 0 24 24">
    <g>
        <path fill="none" d="M0 0h24v24H0z"/>
        <path d="M3 3h18v2H3V3zm5 8v10H6V11H3l4-4 4 4H8zm10 0v10h-2V11h-3l4-4 4 4h-3z"/>
    </g>
</svg>

<svg viewBox="0 0 24 24" fill="currentColor" xmlns="http://www.w3.org/2000/svg">
    <path d="M3 3H21V5H3V3ZM8 11V21H6V11H3L7 7L11 11H8ZM18 11V21H16V11H13L17 7L21 11H18Z"/>
</svg>
